src/assets/gender.svg

<svg fill="none" height="262" viewBox="0 0 263 262" width="263" xmlns="http://www.w3.org/2000/svg"><g stroke="#fff"><path d="m131.4 130.983v-130.404021c72.02 0 130.41 58.384021 130.41 130.404021s-58.39 130.403-130.41 130.403-130.4-58.383-130.4-130.403c0-23.889 6.55997-47.319 18.97-67.732z" fill="#67c587"/><path d="m131.4 130.983-111.4303-67.732c8.32-13.683 19.08-25.717 31.76-35.5z" fill="#eaf6ed"/><path d="m131.401 130.983-79.6705-103.2319c10.33-7.974 21.8-14.351 34.02-18.92005z" fill="#c9ead4"/><path d="m131.4 130.983-45.65-122.15195c9.85-3.682 20.11-6.158 30.56-7.375z" fill="#a9deba"/><path d="m131.401 130.983-15.09-129.52704c2.51-.292 5.019-.510986 7.529-.657986z" fill="#88d1a1"/><path d="m131.4 130.983-7.56-130.184019c2.52-.147 5.04-.220002 7.56-.220002z" fill="#59aa76"/></g></svg>

<svg width="263" height="262" viewBox="0 0 263 262" fill="none" xmlns="http://www.w3.org/2000/svg">
<path d="M131.4 130.983V0.578979C203.42 0.578979 261.81 58.963 261.81 130.983C261.81 203.003 203.42 261.386 131.4 261.386C59.38 261.386 1 203.003 1 130.983C1 107.094 7.55997 83.664 19.97 63.251L131.4 130.983Z" fill="#67C587" stroke="white"/>
<path d="M131.4 130.983L19.9697 63.251C28.2897 49.568 39.0497 37.534 51.7297 27.751L131.4 130.983Z" fill="#EAF6ED" stroke="white"/>
<path d="M131.401 130.983L51.7305 27.7511C62.0605 19.7771 73.5305 13.4001 85.7505 8.83105L131.401 130.983Z" fill="#C9EAD4" stroke="white"/>
<path d="M131.4 130.983L85.75 8.83105C95.6 5.14905 105.86 2.67305 116.31 1.45605L131.4 130.983Z" fill="#A9DEBA" stroke="white"/>
<path d="M131.401 130.983L116.311 1.45596C118.821 1.16396 121.33 0.944974 123.84 0.797974L131.401 130.983Z" fill="#88D1A1" stroke="white"/>
<path d="M131.4 130.983L123.84 0.798981C126.36 0.651981 128.88 0.578979 131.4 0.578979V130.983Z" fill="#59AA76" stroke="white"/>
</svg>
